icon/io/newspaper-outline.svg

<svg xmlns="http://www.w3.org/2000/svg" width="512" height="512"><path d="M368 415.86V72a24.07 24.07 0 0 0-24-24H72a24.07 24.07 0 0 0-24 24v352a40.12 40.12 0 0 0 40 40h328" style="fill:none;stroke:#000;stroke-linejoin:round;stroke-width:32px"/><path d="M416 464a48 48 0 0 1-48-48V128h72a24 24 0 0 1 24 24v264a48 48 0 0 1-48 48Z" style="fill:none;stroke:#000;stroke-linejoin:round;stroke-width:32px"/><path style="fill:none;stroke:#000;stroke-linecap:round;stroke-linejoin:round;stroke-width:32px" d="M240 128h64M240 192h64M112 256h192M112 320h192M112 384h192"/><path d="M176 208h-64a16 16 0 0 1-16-16v-64a16 16 0 0 1 16-16h64a16 16 0 0 1 16 16v64a16 16 0 0 1-16 16Z"/></svg>

<svg xmlns="http://www.w3.org/2000/svg" viewBox="0 0 512 512" height="1em" width="1em">
  <path d="M368,415.86V72a24.07,24.07,0,0,0-24-24H72A24.07,24.07,0,0,0,48,72V424a40.12,40.12,0,0,0,40,40H416" style="fill:none;stroke:#000;stroke-linejoin:round;stroke-width:32px"/>
  <path d="M416,464h0a48,48,0,0,1-48-48V128h72a24,24,0,0,1,24,24V416A48,48,0,0,1,416,464Z" style="fill:none;stroke:#000;stroke-linejoin:round;stroke-width:32px"/>
  <line x1="240" y1="128" x2="304" y2="128" style="fill:none;stroke:#000;stroke-linecap:round;stroke-linejoin:round;stroke-width:32px"/>
  <line x1="240" y1="192" x2="304" y2="192" style="fill:none;stroke:#000;stroke-linecap:round;stroke-linejoin:round;stroke-width:32px"/>
  <line x1="112" y1="256" x2="304" y2="256" style="fill:none;stroke:#000;stroke-linecap:round;stroke-linejoin:round;stroke-width:32px"/>
  <line x1="112" y1="320" x2="304" y2="320" style="fill:none;stroke:#000;stroke-linecap:round;stroke-linejoin:round;stroke-width:32px"/>
  <line x1="112" y1="384" x2="304" y2="384" style="fill:none;stroke:#000;stroke-linecap:round;stroke-linejoin:round;stroke-width:32px"/>
  <path d="M176,208H112a16,16,0,0,1-16-16V128a16,16,0,0,1,16-16h64a16,16,0,0,1,16,16v64A16,16,0,0,1,176,208Z"/>
</svg>
